X:1
T:Meet Me by the Moonlight
M:4/4
L:1/8
K:G
 z4 z2 DG| BBB-B B2 AG| A E- E4F-E| D2 GA B2 cB| A4 z2D-G| B2 BB B2 AG|\
 A E- E4 FE| D2 FG A2 BA| G6 z2|
